X: 42694
T: Whistler Of Rosslea, The
R: reel
M: 4/4
K: Eminor
|:EFGA B2AF|BFAF GE E2|DEFG A2GA|BcAB GAFG|
EFGE FGAF|BcdB edBA|GA (3BAG AGFA|GEFD E3B:|
|:e2Be GeBe|e2fe edBc|d2Ad FdAd|dcBA GFDF|
Eeed edBA|GABc d3e|edBA GA (3BAG|AFDF E4:|

